X: 20210
T: Joe Bane's
R: barndance
M: 4/4
K: Dmajor
fe|.d2 FA.A2 FA|AB de fg fe|.d2 FA .AF dF|ef fe dA Bc:|
d3f af ed|Be ee fe e2|d3f af ed|ef fe dA Bc|
d3f af ed|Be ee fe e2|f3f g3g|fa fd e2 fe|

